X: 15965
T: Grant's
R: reel
M: 4/4
K: Emajor
|(Bcd)|:e2 BA GBEB|GBEB GBEB|B,EGF B,EGF|DFB,D FB,DF|
e2 BA GBEB|GBEB GBEB|Aaga gfed|f2 e2 e2:|
(Bcd)|:efga bgeg|(agf) (agf) dfBd|efga bgeg|ge=dc BcdB|
cAce BGBe|AFA=d F=DFA|EGBa gbfd|e2 e2 e2:|

